src/components/Icon/svg-icon/main/sort-asc.svg

<svg xmlns="http://www.w3.org/2000/svg" width="24" height="24"><path fill="#677078" d="M3 8h6V6H3v2zm0 8v2h18v-2H3zm0-3h12v-2H3v2z"/></svg>

<svg xmlns="http://www.w3.org/2000/svg" width="24" height="24" viewBox="0 0 24 24">
  <path fill="#677078" d="M3,8 L9,8 L9,6 L3,6 L3,8 Z M3,16 L3,18 L21,18 L21,16 L3,16 Z M3,13 L15,13 L15,11 L3,11 L3,13 Z"/>
</svg>
